!!!OTL: James McDonald
!!!ONM: 21.
**kern
*clefG2
*k[b-e-]
*B-:
*M6/8
*MM92
{8f
=1
4b-
8d
4e-
8f
=2
4g
8f
4d}
{8c
=3
4d
8c
4B-
8A
=4
4.B-
8r
8r}
{16f
16e-
=5
4d
8f
(4b-
8cc)
=6
(4dd
16cc
16b-)
4cc}
{8dd
=7
4b-
8f
4b-
8cc
=8
4.b-
8r
8r}
{8b-
=9
4f
8b-
4cc
16cc
16cc
=10
4dd
(16cc
16b-)
4cc}
{16dd
16cc
=11
4b-
8f
4b-
8cc
=12
4.b-
8r
8r}
{8b-
=13
4dd
8d
4e-
8f
=14
4g
8f
4d}
{(16B-
16c)
=15
4d
8c
4B-
8A
=16
[4.B-
4B-]}
==
*-
!!!CNT: Folksongs of Maritime Canada
!!!MRD: 1928///-1932///
!!!OCL: Helen Creighton
!!!YOR: Songs and Ballads from Nova Scotia
!!!PPR: J.M. Dent & Sons, Limited
!!!PPP: Toronto, Canada
!!!PDT: 1932///
!!!reprint: Dover Publications, 1992: ISBN 0-486-21703-5
!!!ENC1: Craig Stuart Sapp (music and bibliographic data)                       
!!!ENC2: Marcus Pearce (phrase markings and key designations)                   
!!!ENC3: Darrell Conklin (phrase markings and key designations)   
!!!END: 2002/04/10/
!!!EEV: 2004/06/05
!!!MPN: Mr. Allan Henneberry
!!!PPG: 42
!!!EFL: 21/152
!!!ARE: Canada; Nova Scotia
!!!verses: 9
!!!VTS: 3968923750
